icons-dark/apps/48/klipper.svg

<svg width="48" xmlns="http://www.w3.org/2000/svg" height="48">
 <defs>
  <linearGradient id="a" y1="543.8" y2="503.8" x2="0" gradientUnits="userSpaceOnUse" gradientTransform="matrix(1.125 0 0 .925-51.07 40.785)">
   <stop stop-color="#bd8d48"/>
   <stop offset="1" stop-color="#e8b971"/>
  </linearGradient>
  <linearGradient id="b" y1="541.8" y2="505.8" x2="0" gradientUnits="userSpaceOnUse" gradientTransform="matrix(1 0 0 .91667 0 45.15)">
   <stop stop-color="#f2f2f2"/>
   <stop offset="1" stop-color="#ffffff"/>
  </linearGradient>
  <linearGradient id="c" y1="542.8" y2="504.8" x2="0" gradientUnits="userSpaceOnUse" gradientTransform="matrix(1 0 0 .92105 0 42.852)">
   <stop stop-color="#977a5c"/>
   <stop offset="1" stop-color="#9d8062"/>
  </linearGradient>
  <linearGradient id="d" y1="504.8" x1="391.57" y2="531.8" x2="418.57" gradientUnits="userSpaceOnUse">
   <stop stop-color="#383e51"/>
   <stop offset="1" stop-color="#655c6f" stop-opacity="0"/>
  </linearGradient>
 </defs>
 <g transform="translate(-384.57-499.8)">
  <rect width="36" x="390.57" y="506.8" fill="url(#a)" rx="0" height="37"/>
  <rect width="34" x="391.57" opacity=".5" y="507.8" fill="url(#c)" height="35"/>
  <rect width="32" x="392.57" y="508.8" fill="url(#b)" height="33"/>
  <g stroke-width=".1">
   <path fill="#afc0c6" d="m20 4l-2 2h-7v4h26v-4h-7l-2-2zm4 1c.554 0 1 .446 1 1 0 .554-.446 1-1 1-.554 0-1-.446-1-1 0-.554.446-1 1-1" transform="translate(384.57 499.8)"/>
   <rect width="26" x="395.57" y="508.8" fill="#96aab5" height="1"/>
   <g fill="#d1dbdf">
    <rect width="18" x="395.57" y="512.8" height="1"/>
    <rect width="8" x="395.57" y="516.8" height="1"/>
    <rect width="18" x="395.57" y="520.8" height="1"/>
    <rect width="13" x="395.57" y="524.8" height="1"/>
    <rect width="10" x="395.57" y="536.8" height="1"/>
   </g>
  </g>
  <rect width="36" x="390.57" y="542.8" fill="#aa7f41" height="1"/>
  <path opacity=".2" fill="url(#d)" fill-rule="evenodd" d="m421.57 509.8l5 5v29h0v-3l-31-31z"/>
  <g fill="#2d2110" fill-opacity=".314">
   <rect width="32" x="392.57" y="539.8" height="2"/>
   <rect width="32" x="392.57" y="540.8" height="1"/>
  </g>
 </g>
</svg>

<?xml version="1.0" encoding="UTF-8" standalone="no"?>

<!-- Created with Inkscape (http://www.inkscape.org/) -->
<svg width="48" version="1.1" xmlns="http://www.w3.org/2000/svg" height="48" xmlns:xlink="http://www.w3.org/1999/xlink" xmlns:inkscape="http://www.inkscape.org/namespaces/inkscape">
 <defs id="defs5455">
  <linearGradient inkscape:collect="always" id="linearGradient4303">
   <stop style="stop-color:#977a5c" id="stop4305"/>
   <stop offset="1" style="stop-color:#9d8062" id="stop4307"/>
  </linearGradient>
  <linearGradient inkscape:collect="always" id="linearGradient4273">
   <stop style="stop-color:#f2f2f2" id="stop4275"/>
   <stop offset="1" style="stop-color:#ffffff" id="stop4277"/>
  </linearGradient>
  <linearGradient inkscape:collect="always" id="linearGradient4152">
   <stop style="stop-color:#bd8d48" id="stop4154"/>
   <stop offset="1" style="stop-color:#e8b971" id="stop4156"/>
  </linearGradient>
  <linearGradient inkscape:collect="always" xlink:href="#linearGradient4152" id="linearGradient4158" y1="543.79797" y2="503.798" x2="0" gradientUnits="userSpaceOnUse" gradientTransform="matrix(1.1250015 0 0 0.9250002 -51.07197 40.784727)"/>
  <linearGradient inkscape:collect="always" xlink:href="#linearGradient4273" id="linearGradient4279" y1="541.79797" y2="505.798" x2="0" gradientUnits="userSpaceOnUse" gradientTransform="matrix(1 0 0 0.91666686 0 45.14974)"/>
  <linearGradient inkscape:collect="always" xlink:href="#linearGradient4303" id="linearGradient4309" y1="542.79797" y2="504.798" x2="0" gradientUnits="userSpaceOnUse" gradientTransform="matrix(1 0 0 0.92105349 0 42.851946)"/>
  <linearGradient inkscape:collect="always" id="linearGradient4410">
   <stop style="stop-color:#383e51" id="stop4412"/>
   <stop offset="1" style="stop-color:#655c6f;stop-opacity:0" id="stop4414"/>
  </linearGradient>
  <linearGradient inkscape:collect="always" xlink:href="#linearGradient4410" id="linearGradient4187" y1="504.798" x1="391.57144" y2="531.79797" x2="418.57144" gradientUnits="userSpaceOnUse"/>
 </defs>
 <metadata id="metadata5458"/>
 <g inkscape:label="Capa 1" inkscape:groupmode="layer" id="layer1" transform="matrix(1 0 0 1 -384.57143 -499.798)">
  <rect width="35.999992" x="390.57144" y="506.79816" rx="0" height="37.00001" style="fill:url(#linearGradient4158)" id="rect4139"/>
  <rect width="34" x="391.57144" y="507.798" height="35" style="fill:url(#linearGradient4309);opacity:0.5" id="rect4250"/>
  <rect width="32" x="392.57144" y="508.798" height="32.999985" style="fill:url(#linearGradient4279)" id="rect4242"/>
  <path style="fill:#afc0c6;stroke-width:0.1" id="rect4231" d="M 20 4 L 18 6 L 11 6 L 11 10 L 37 10 L 37 6 L 30 6 L 28 4 L 20 4 z M 24 5 C 24.554 5 25 5.446 25 6 C 25 6.554 24.554 7 24 7 C 23.446 7 23 6.554 23 6 C 23 5.446 23.446 5 24 5 z " transform="matrix(1 0 0 1 384.57143 499.798)"/>
  <rect width="26" x="395.57144" y="508.798" height="1" style="fill:#96aab5;stroke-width:0.1" id="rect4249"/>
  <rect width="17.999989" x="395.57144" y="512.79797" height="1.00003" style="fill:#d1dbdf;stroke-width:0.1" id="rect4254"/>
  <rect width="7.999989" x="395.57144" y="516.79797" height="1.00003" style="fill:#d1dbdf;stroke-width:0.1" id="rect4256"/>
  <rect width="17.999989" x="395.57144" y="520.79797" height="1.00003" style="fill:#d1dbdf;stroke-width:0.1" id="rect4258"/>
  <rect width="12.999989" x="395.57144" y="524.79797" height="1.00003" style="fill:#d1dbdf;stroke-width:0.1" id="rect4260"/>
  <rect width="10.00001" x="395.57144" y="536.79822" height="0.999974" style="fill:#d1dbdf;stroke-width:0.1" id="rect4262"/>
  <rect width="35.999992" x="390.57144" y="542.79797" height="0.999974" style="fill:#aa7f41" id="rect4171"/>
  <path inkscape:connector-curvature="0" style="fill:url(#linearGradient4187);opacity:0.2;fill-rule:evenodd" id="path4179" d="m 421.57143,509.798 5,5 0,28.99997 -7,0 7,3e-5 0,-4 0,1 -31,-31 z"/>
  <rect width="32.00003" x="392.57141" y="539.79773" height="1.999974" style="fill:#2d2110;fill-opacity:0.313725" id="rect4244"/>
  <rect width="32.00003" x="392.57141" y="540.79773" height="0.999974" style="fill:#2d2110;fill-opacity:0.313725" id="rect4301"/>
 </g>
</svg>
